X:1
T:Sarabande
T:Sarabande
T:French Suites
T:J. S. Bach, French Suite III, BWV 814
C:J. S. Bach, French Suite III, BWV 814
%%score { ( 1 4 5 ) | ( 2 3 ) }
L:1/8
Q:1/4=63
M:3/4
K:D
V:1 treble nm="Piano" snm="Pno."
V:4 treble 
V:5 treble 
V:2 bass 
V:3 bass 
V:1
"^Sostenuto""_espr." Bdfb-b^a | bf (e/!1!d/)(!2!c/B/-) B^A | Bg- g/f/e/f/- f/e/d/e/ | !4!e6- | %4
 !5!e/d/c/B/ !4!c/A/G/A/ !1!B/!3!c/d/e/ | !3!A/F/E/F/ !1!G/A/B/c/ !1!d/e/f/!1!g/ | %6
 !4!a/b/!4!c/d/"^(     )" P!2!F/E/F/d/ !1!G/!3!F/G/E/ | !15!D2 x4 :: %8
 M!313!F4{FA} T!13!G3/2F/4G/4 | A2- A!1!B/c/ d/e/f/e/ | f/d/c/B/ e/A/^G/A/ d/G/F/G/ | %11
 E/^G/B/d/ c4 | z2 b2 !45!a2- | a2 ^g2 !35!f2- | f2 f2"^(     )" P^e2 | [Af]6 | %16
 (!3!=c/B/!1!c/f/) (a/g/a/=c'/ b/a/!1!g/!2!f/) | (!1!e/^d/f/a/) g4 | !5!f2 ^e2 !3!f2 | %19
 ^g2- (g/f/^e/!5!g/ f/=e/!1!d/!4!c/) | d/B/^A/B/ F/B/c/d/ E/!2!c/d/e/ | %21
 !1!F/d/e/f/ ^G/e/f/=g/ c/g/f/e/ | !1!d/b/g/!2!e/ f/!1!B/!3!^A/B/ F/B/c/A/ | !4!B2 !5!B4 :| %24
V:2
 !3!D4 !1!E2 | F4 E2 | !1!D2 !2!C2 !1!B,2- | B,^A,CF-FF- | F G2 F2 E- | E D2 !2!C2 D- | %6
 DE !2!C D2 C | z/ E,/F,- z/ A,/-F,- [F,A,]2 :: z F,A,D-DC | z D3- DC | %10
 D,D- D/C/B,/C/- C/B,/A,/B,/ | A,2- A,^G,/A,/ B,/G,/A,/F,/ | %12
 (!5!^E,/^G,/A,/B,/ A,/G,/F,/E,/ !3!F,/G,/A,/!2!F,/) | %13
 !5!C,/^E,/F,/^G,/ F,/!1!E,/!3!^D,/C,/ =D,/=E,/F,/D,/ | B,,C,/!1!D,/ C,/B,,/A,,/^G,,/ C,C,, | %15
 z A,,C,F,-F,G, | !1!A,2 B,2 =C2- | C2 B,/A,/=C/B,/ !1!A,/G,/F,/!1!E,/ | %18
 (!4!=D,/C,/D,/F,/) (B,/!3!^A,/B,/D/ C/!1!B,/=A,/^G,/) | F,/^E,/^G,/B,/- B,B,"^(     )" P^A,2 | %20
 z D,F,B,-B,^A, | B,F,- F,2 =G,2 | F,!1!^A,!1!B,!2!C!12!DE- | E/C/D- D x x2 :| %24
V:3
 !5!B,4 !4!C2 | D4 C2 | !5!B,2 !3!=A,2 !4!G,2 | F,4 !4!^A,2 | !3!B,2 =A,2 G,2 | !4!F,2 E,2 F,2 | %6
 !5!G,2 !3!A,G, A,2 | !5!D,2- [D,F,]>!1!D, A,,/F,,/D,, :: D,4 E,2 | F,2 A,F, E,2 | x6 | x6 | x6 | %13
 x6 | x6 | F,,4 !3!E,2 | !5!^D,6 | E,6 | x6 | x/ ^E,3/2 F,4 | B,,4 !5!C,2 | %21
 D,2- D, !5!B,,2 !4!^A,, | B,,!4!C, !5!D,!5!E, !45!F,2 | B,3 z/ !1!B,/ F,/D,/B,, :| %24
V:4
 x6 | x6 | x6 | x6 | x6 | x6 | x6 | z z/ A,/ D4 :: x6 | x6 | x6 | E2- E4 | d4 c2 | B4 A2 | ^G6 | %15
 x6 | x6 | x/ ^d3/2 e4 | !1!B2 c2 !1!d2- | d2 c4 | x6 | x6 | x6 | z z/ F/- F/F/-D- D2 :| %24
V:5
 x6 | x6 | x6 | x6 | x6 | x6 | x6 | x6 :: x6 | x6 | x6 | x2 A4 | x6 | x6 | x6 | x6 | x6 | x f x4 | %18
 x6 | x6 | x6 | x6 | x6 | x4 F2 :| %24

